X:416
T: MIT FROHEM MUTH UND HEITERM SINN
N: E1606
O: Europa, Mitteleuropa, Deutschland, Hessen, Kreis Wetzlar
R: Staende -, Handwerker -, Gesellen - Lied, Wanderschaft
M: 4/4
L: 1/8
K: C
C,E, | G,3E,C2B,A, | A,G,G,2G,2
C2 | D3G,G,2ED | C4z2
C,E, | G,3E,C2B,A, | A,2G,2G,2
C2 | D2D2DG,G,2 | C3DE2
G,2 | E,2A,2G,2G,2 | E3DC2
A,2 | G,2D2C2B,2 | C4z2

